images/hifi.svg

<svg height="250" viewBox="0 0 250 250" width="250" xmlns="http://www.w3.org/2000/svg"><g fill-rule="evenodd"><path d="m86.597656 86.597656c-23.855468 23.855469-24.097656 24.152344-24.097656 29.496094 0 7.035156 3.636719 12.148438 9.996094 14.054688 3.746094 1.121093 5.710937 1.113281 8.488281-.039063 5.1875-2.148437 48.632813-46.199219 49.664063-50.355469 2.171874-8.738281-5.214844-17.238281-14.988282-17.25-4.78125-.003906-5.84375.878906-29.0625 24.09375m37.777344 20.15625c-5.453125 2.410156-17.652344 15.753906-18.679688 20.429688-1.132812 5.160156 2.222657 12.320312 6.910157 14.746094 1.9375 1 5.617187 1.820312 8.179687 1.820312 4.121094 0 5.714844-1.054688 13.8125-9.152344s9.152344-9.691406 9.152344-13.8125c0-6.507812-3.152344-11.914062-8.167969-14.007812-5.144531-2.152344-6.382812-2.152344-11.207031-.023438m18.472656 36.09375c-23.855468 23.855469-24.097656 24.152344-24.097656 29.496094 0 7.035156 3.636719 12.148438 9.996094 14.054688 3.746094 1.121093 5.710937 1.113281 8.488281-.039063 5.1875-2.148437 48.632813-46.199219 49.664063-50.355469 2.171874-8.738281-5.214844-17.238281-14.988282-17.25-4.78125-.003906-5.84375.878906-29.0625 24.09375" fill="#fbfbfc"/><path d="m0 125.007812v125.003907l125.3125-.316407 125.3125-.320312.320312-124.6875.316407-124.6875h-251.261719zm.601562.617188c0 68.75.152344 97.058594.335938 62.90625.183594-34.148438.183594-90.398438 0-125-.183594-34.597656-.335938-6.65625-.335938 62.09375m85.996094-39.027344c-23.855468 23.855469-24.097656 24.152344-24.097656 29.496094 0 7.035156 3.636719 12.148438 9.996094 14.054688 3.746094 1.121093 5.710937 1.113281 8.488281-.039063 5.1875-2.148437 48.632813-46.199219 49.664063-50.355469 2.171874-8.738281-5.214844-17.238281-14.988282-17.25-4.78125-.003906-5.84375.878906-29.0625 24.09375m37.777344 20.15625c-5.453125 2.410156-17.652344 15.753906-18.679688 20.429688-1.132812 5.160156 2.222657 12.320312 6.910157 14.746094 1.9375 1 5.617187 1.820312 8.179687 1.820312 4.121094 0 5.714844-1.054688 13.8125-9.152344s9.152344-9.691406 9.152344-13.8125c0-6.507812-3.152344-11.914062-8.167969-14.007812-5.144531-2.152344-6.382812-2.152344-11.207031-.023438m18.472656 36.09375c-23.855468 23.855469-24.097656 24.152344-24.097656 29.496094 0 7.035156 3.636719 12.148438 9.996094 14.054688 3.746094 1.121093 5.710937 1.113281 8.488281-.039063 5.1875-2.148437 48.632813-46.199219 49.664063-50.355469 2.171874-8.738281-5.214844-17.238281-14.988282-17.25-4.78125-.003906-5.84375.878906-29.0625 24.09375" fill="#6c2cf4"/></g></svg>

<svg xmlns="http://www.w3.org/2000/svg" xmlns:xlink="http://www.w3.org/1999/xlink" width="250px" height="250px" viewBox="0 0 250 250" version="1.1">
<g id="surface1">
<path style=" stroke:none;fill-rule:evenodd;fill:rgb(98.431373%,98.431373%,98.823529%);fill-opacity:1;" d="M 86.597656 86.597656 C 62.742188 110.453125 62.5 110.75 62.5 116.09375 C 62.5 123.128906 66.136719 128.242188 72.496094 130.148438 C 76.242188 131.269531 78.207031 131.261719 80.984375 130.109375 C 86.171875 127.960938 129.617188 83.910156 130.648438 79.753906 C 132.820312 71.015625 125.433594 62.515625 115.660156 62.503906 C 110.878906 62.5 109.816406 63.382812 86.597656 86.597656 M 124.375 106.753906 C 118.921875 109.164062 106.722656 122.507812 105.695312 127.183594 C 104.5625 132.34375 107.917969 139.503906 112.605469 141.929688 C 114.542969 142.929688 118.222656 143.75 120.785156 143.75 C 124.90625 143.75 126.5 142.695312 134.597656 134.597656 C 142.695312 126.5 143.75 124.90625 143.75 120.785156 C 143.75 114.277344 140.597656 108.871094 135.582031 106.777344 C 130.4375 104.625 129.199219 104.625 124.375 106.753906 M 142.847656 142.847656 C 118.992188 166.703125 118.75 167 118.75 172.34375 C 118.75 179.378906 122.386719 184.492188 128.746094 186.398438 C 132.492188 187.519531 134.457031 187.511719 137.234375 186.359375 C 142.421875 184.210938 185.867188 140.160156 186.898438 136.003906 C 189.070312 127.265625 181.683594 118.765625 171.910156 118.753906 C 167.128906 118.75 166.066406 119.632812 142.847656 142.847656 "/>
<path style=" stroke:none;fill-rule:evenodd;fill:rgb(42.352942%,17.254902%,95.686275%);fill-opacity:1;" d="M 0 125.007812 L 0 250.011719 L 125.3125 249.695312 L 250.625 249.375 L 250.945312 124.6875 L 251.261719 0 L 0 0 L 0 125.007812 M 0.601562 125.625 C 0.601562 194.375 0.753906 222.683594 0.9375 188.53125 C 1.121094 154.382812 1.121094 98.132812 0.9375 63.53125 C 0.753906 28.933594 0.601562 56.875 0.601562 125.625 M 86.597656 86.597656 C 62.742188 110.453125 62.5 110.75 62.5 116.09375 C 62.5 123.128906 66.136719 128.242188 72.496094 130.148438 C 76.242188 131.269531 78.207031 131.261719 80.984375 130.109375 C 86.171875 127.960938 129.617188 83.910156 130.648438 79.753906 C 132.820312 71.015625 125.433594 62.515625 115.660156 62.503906 C 110.878906 62.5 109.816406 63.382812 86.597656 86.597656 M 124.375 106.753906 C 118.921875 109.164062 106.722656 122.507812 105.695312 127.183594 C 104.5625 132.34375 107.917969 139.503906 112.605469 141.929688 C 114.542969 142.929688 118.222656 143.75 120.785156 143.75 C 124.90625 143.75 126.5 142.695312 134.597656 134.597656 C 142.695312 126.5 143.75 124.90625 143.75 120.785156 C 143.75 114.277344 140.597656 108.871094 135.582031 106.777344 C 130.4375 104.625 129.199219 104.625 124.375 106.753906 M 142.847656 142.847656 C 118.992188 166.703125 118.75 167 118.75 172.34375 C 118.75 179.378906 122.386719 184.492188 128.746094 186.398438 C 132.492188 187.519531 134.457031 187.511719 137.234375 186.359375 C 142.421875 184.210938 185.867188 140.160156 186.898438 136.003906 C 189.070312 127.265625 181.683594 118.765625 171.910156 118.753906 C 167.128906 118.75 166.066406 119.632812 142.847656 142.847656 "/>
</g>
</svg>
